assets/img/main/vmgr.svg

<svg width="51" height="17" viewBox="0 0 51 17" fill="none" xmlns="http://www.w3.org/2000/svg">
<g clip-path="url(#clip0_58_345)">
<path d="M47.7956 8.27599C49.4034 7.69097 50.2073 6.36607 50.2073 4.3013C50.2073 2.81007 49.7857 1.72032 48.9424 1.03207C48.0992 0.343807 46.6938 0.00541265 44.7262 0.0168836H39.9702V12.9217H42.7867V8.77498H44.743L47.5426 12.9045H51.0168L47.7956 8.27599ZM46.8006 5.81546C46.452 6.13665 45.7943 6.29725 44.8274 6.29725H42.7698V2.47741H44.878C45.7774 2.47741 46.4127 2.60359 46.7837 2.85595C47.1379 3.11405 47.3234 3.59583 47.3234 4.28409C47.3234 4.97235 47.1547 5.48854 46.8174 5.81546H46.8006Z" fill="url(#paint0_linear_58_345)"/>
<path d="M19.7828 7.08907L16.5278 0H12.7163V12.9049H15.5328V4.7834L18.9395 11.8208H20.626L24.0328 4.7834V12.9049H26.8661V0H23.0546L19.7828 7.08907Z" fill="url(#paint1_linear_58_345)"/>
<path d="M8.85417 8.46559L3.42361 0H0L8.26389 12.9049H11.6875V0.0172065H8.85417V8.46559Z" fill="url(#paint2_linear_58_345)"/>
<path d="M38.5873 6.40068H35.8382L34.5734 8.22457H36.1924V9.82477C35.5628 10.1918 34.7757 10.3754 33.8313 10.3754C33.3776 10.3799 32.9278 10.289 32.51 10.1084C32.0922 9.92783 31.7152 9.66143 31.4027 9.32578C30.7056 8.61458 30.3571 7.66823 30.3571 6.48672C30.3571 5.3052 30.7113 4.35885 31.4196 3.64765C31.7658 3.29431 32.1795 3.0173 32.635 2.83379C33.0904 2.65028 33.578 2.56419 34.0674 2.58084C34.5746 2.57733 35.078 2.6707 35.5515 2.85615C36.11 3.1047 36.6232 3.44794 37.0694 3.87133L38.5029 1.78935C37.2497 0.612954 35.6015 -0.0276139 33.8988 -0.000127218C33.0671 -0.0128748 32.2414 0.145059 31.4708 0.46429C30.7001 0.783522 30.0002 1.25754 29.4127 1.85817C28.1759 3.09704 27.5575 4.63989 27.5575 6.48672C27.5575 8.33354 28.1534 9.86492 29.3452 11.0808C30.582 12.2968 32.0998 12.9047 33.8988 12.9047C36.035 12.9047 37.7159 12.2165 38.9414 10.84V6.40068H38.5873Z" fill="url(#paint3_linear_58_345)"/>
<path d="M18.1468 15.692L17.8095 16.948H17.371L16.9156 15.2618H17.253L17.5903 16.5179H17.6071L17.9444 15.2618H18.3492L18.6865 16.5179L19.0238 15.2618H19.3948L18.9226 16.948H18.4841L18.1468 15.692ZM20.2381 15.2618H21.5535V15.5371H20.5754V15.9673H21.25V16.2426H20.5754V16.6899H21.5873V16.9653H20.2381V15.2618ZM22.4305 15.2618H23.1557C23.5942 15.2618 23.7797 15.4511 23.7797 15.7092C23.7813 15.7897 23.7552 15.8682 23.7059 15.9311C23.6566 15.994 23.5872 16.0372 23.5099 16.0533C23.5099 16.0533 23.8978 16.1221 23.8978 16.4663C23.8978 16.7244 23.6785 16.948 23.2401 16.948H22.4305V15.2618ZM23.4424 15.7436C23.4424 15.6404 23.3412 15.5371 23.1557 15.5371H22.751V15.9501H23.1557C23.3412 15.9501 23.4424 15.8468 23.4424 15.7436ZM22.751 16.2254V16.6727H23.2569C23.4593 16.6727 23.5436 16.5695 23.5436 16.4491C23.5436 16.3286 23.4593 16.2254 23.2401 16.2254H22.751ZM26.6637 15.2618C27.2033 15.2618 27.5575 15.6059 27.5575 16.1049C27.5575 16.6039 27.2033 16.948 26.6637 16.948H26.0228V15.2618H26.6637ZM26.3601 15.5371V16.6727H26.6637C26.8113 16.6727 26.9528 16.6129 27.0572 16.5064C27.1616 16.3999 27.2202 16.2555 27.2202 16.1049C27.2202 15.9543 27.1616 15.8099 27.0572 15.7034C26.9528 15.5969 26.8113 15.5371 26.6637 15.5371H26.3601ZM28.4345 15.2618H29.75V15.5371H28.7549V15.9673H29.4295V16.2426H28.7549V16.6899H29.7668V16.9653H28.4176L28.4345 15.2618ZM30.4583 15.2618H30.8125L31.3016 16.5867L31.8075 15.2618H32.1617L31.5208 16.948H31.0992L30.4583 15.2618ZM32.9712 15.2618H34.2867V15.5371H33.2916V15.9673H33.9662V16.2426H33.2916V16.6899H34.3035V16.9653H32.9543L32.9712 15.2618ZM35.1468 15.2618H35.4841V16.6727H36.4285V16.948H35.1637L35.1468 15.2618ZM37.9801 15.2102C38.1536 15.2102 38.3231 15.2627 38.4674 15.361C38.6116 15.4593 38.724 15.599 38.7904 15.7625C38.8567 15.926 38.8741 16.1059 38.8403 16.2795C38.8064 16.453 38.7229 16.6125 38.6003 16.7376C38.4776 16.8627 38.3213 16.9479 38.1512 16.9825C37.9811 17.017 37.8048 16.9993 37.6445 16.9316C37.4843 16.8638 37.3473 16.7492 37.2509 16.602C37.1546 16.4549 37.1031 16.2819 37.1031 16.1049C37.0984 15.9861 37.1178 15.8676 37.1602 15.7569C37.2026 15.6461 37.267 15.5455 37.3494 15.4615C37.4318 15.3774 37.5304 15.3116 37.639 15.2684C37.7475 15.2252 37.8637 15.2053 37.9801 15.2102ZM37.9801 15.5027C37.8622 15.4958 37.7449 15.5252 37.6435 15.587C37.5421 15.6489 37.4612 15.7404 37.4113 15.8496C37.3615 15.9589 37.3448 16.0809 37.3637 16.1999C37.3825 16.3189 37.4359 16.4294 37.5169 16.5171C37.598 16.6048 37.7029 16.6656 37.8183 16.6918C37.9336 16.718 38.054 16.7082 38.1638 16.6638C38.2736 16.6194 38.3679 16.5424 38.4344 16.4428C38.5008 16.3432 38.5365 16.2255 38.5367 16.1049C38.5439 16.0269 38.5348 15.9483 38.5098 15.8742C38.4849 15.8001 38.4448 15.7322 38.3921 15.6752C38.3394 15.6182 38.2754 15.5734 38.2044 15.5436C38.1333 15.5138 38.0569 15.4999 37.9801 15.5027ZM40.5099 15.2618C40.9653 15.2618 41.2182 15.5199 41.2182 15.8296C41.2182 16.1393 40.9653 16.4146 40.5099 16.4146H40.0883V16.948H39.751V15.2618H40.5099ZM40.0883 15.5371V16.1393H40.5099C40.5545 16.1503 40.601 16.1508 40.6459 16.1408C40.6907 16.1308 40.7327 16.1105 40.7688 16.0815C40.8049 16.0525 40.834 16.0156 40.8541 15.9734C40.8741 15.9313 40.8845 15.8851 40.8845 15.8382C40.8845 15.7914 40.8741 15.7452 40.8541 15.703C40.834 15.6609 40.8049 15.6239 40.7688 15.5949C40.7327 15.566 40.6907 15.5457 40.6459 15.5357C40.601 15.5257 40.5545 15.5262 40.5099 15.5371H40.0883ZM42.9047 16.7072L42.5 15.7952L42.3651 16.948H42.0278L42.2301 15.2618H42.5843L43.0565 16.2942H43.0734L43.5456 15.2618H43.9166L44.119 16.948H43.7817L43.6468 15.7952L43.2252 16.7072H42.9047ZM45.0129 15.2618H46.3283V15.5371H45.3333V15.9673H46.0079V16.2426H45.3333V16.6899H46.3452V16.9653H44.996L45.0129 15.2618ZM48.3859 16.4146V15.2618H48.7232V16.948H48.369L47.5426 15.7952V16.948H47.2053V15.2618H47.5595L48.369 16.4146H48.3859ZM51 15.2618V15.5371H50.4266V16.948H50.0893V15.5371H49.5327V15.2618H51Z" fill="white"/>
</g>
<defs>
<linearGradient id="paint0_linear_58_345" x1="5.75099" y1="6.79623" x2="64.1043" y2="6.30032" gradientUnits="userSpaceOnUse">
<stop stop-color="#662D91"/>
<stop offset="1" stop-color="#EE2A7B"/>
</linearGradient>
<linearGradient id="paint1_linear_58_345" x1="5.75103" y1="6.79656" x2="64.1044" y2="6.30064" gradientUnits="userSpaceOnUse">
<stop stop-color="#662D91"/>
<stop offset="1" stop-color="#EE2A7B"/>
</linearGradient>
<linearGradient id="paint2_linear_58_345" x1="5.75099" y1="6.79656" x2="64.1043" y2="6.30064" gradientUnits="userSpaceOnUse">
<stop stop-color="#662D91"/>
<stop offset="1" stop-color="#EE2A7B"/>
</linearGradient>
<linearGradient id="paint3_linear_58_345" x1="5.75096" y1="6.79643" x2="64.1043" y2="6.30052" gradientUnits="userSpaceOnUse">
<stop stop-color="#662D91"/>
<stop offset="1" stop-color="#EE2A7B"/>
</linearGradient>
<clipPath id="clip0_58_345">
<rect width="51" height="17" fill="white"/>
</clipPath>
</defs>
</svg>

<svg width="51" height="17" fill="none" xmlns="http://www.w3.org/2000/svg"><g clip-path="url(#clip0_58_345)"><path d="M47.796 8.276c1.607-.585 2.411-1.91 2.411-3.975 0-1.49-.421-2.58-1.265-3.269C48.1.344 46.694.005 44.726.017H39.97v12.905h2.817V8.775h1.956l2.8 4.13h3.474l-3.221-4.629zm-.995-2.46c-.349.32-1.007.481-1.974.481H42.77v-3.82h2.108c.9 0 1.535.127 1.906.379.354.258.54.74.54 1.428s-.17 1.205-.507 1.531h-.016z" fill="url(#paint0_linear_58_345)"/><path d="M19.783 7.09L16.528 0h-3.812v12.905h2.817V4.783l3.406 7.038h1.687l3.407-7.038v8.122h2.833V0h-3.811l-3.272 7.09z" fill="url(#paint1_linear_58_345)"/><path d="M8.854 8.466L3.424 0H0l8.264 12.905h3.424V.017H8.854v8.449z" fill="url(#paint2_linear_58_345)"/><path d="M38.587 6.4h-2.749l-1.265 1.825h1.62v1.6c-.63.367-1.417.55-2.362.55a3.248 3.248 0 01-1.321-.267 3.305 3.305 0 01-1.107-.782c-.697-.711-1.046-1.658-1.046-2.84 0-1.18.354-2.127 1.063-2.838a3.57 3.57 0 011.215-.814c.455-.184.943-.27 1.432-.253a3.986 3.986 0 011.484.275 5.389 5.389 0 011.518 1.015l1.434-2.082A6.57 6.57 0 0033.899 0a6.098 6.098 0 00-2.428.465 6.23 6.23 0 00-2.058 1.394c-1.237 1.239-1.855 2.782-1.855 4.629 0 1.847.595 3.378 1.787 4.594 1.237 1.216 2.755 1.824 4.554 1.824 2.136 0 3.817-.688 5.042-2.065V6.4h-.354z" fill="url(#paint3_linear_58_345)"/><path d="M18.147 15.692l-.337 1.256h-.439l-.455-1.686h.337l.337 1.256h.017l.337-1.256h.405l.337 1.256.338-1.256h.37l-.471 1.686h-.439l-.337-1.256zm2.091-.43h1.316v.275h-.979v.43h.675v.276h-.675v.447h1.012v.275h-1.349v-1.703zm2.192 0h.726c.438 0 .624.19.624.447a.349.349 0 01-.074.222.336.336 0 01-.196.122s.388.07.388.413c0 .258-.22.482-.658.482h-.81v-1.686zm1.012.482c0-.104-.1-.207-.286-.207h-.405v.413h.405c.185 0 .286-.103.286-.206zm-.691.481v.448h.506c.202 0 .287-.103.287-.224 0-.12-.085-.224-.304-.224h-.489zm3.913-.963c.54 0 .893.344.893.843s-.354.843-.893.843h-.641v-1.686h.64zm-.304.275v1.136h.304a.55.55 0 00.393-.167.574.574 0 000-.803.55.55 0 00-.393-.166h-.304zm2.075-.275h1.315v.275h-.995v.43h.675v.276h-.675v.447h1.012v.275h-1.35l.017-1.703zm2.023 0h.355l.489 1.325.506-1.325h.354l-.641 1.686h-.422l-.64-1.686zm2.513 0h1.316v.275h-.995v.43h.674v.276h-.674v.447h1.011v.275h-1.349l.017-1.703zm2.176 0h.337v1.41h.944v.276h-1.264l-.017-1.686zm2.833-.052c.174 0 .343.053.487.151a.891.891 0 01.323.401.913.913 0 01-.19.976.861.861 0 01-.956.194.882.882 0 01-.393-.33.908.908 0 01-.148-.497.876.876 0 01.246-.644.84.84 0 01.631-.25zm0 .293a.581.581 0 00-.336.084.613.613 0 00-.127.93.588.588 0 00.647.147.593.593 0 00.27-.221.611.611 0 00.103-.338.56.56 0 00-.145-.43.54.54 0 00-.412-.172zm2.53-.241c.455 0 .708.258.708.568 0 .31-.253.585-.708.585h-.422v.533h-.337v-1.686h.759zm-.422.275v.602h.422a.298.298 0 00.259-.058.309.309 0 00.116-.243.316.316 0 00-.116-.243.302.302 0 00-.26-.058h-.42zm2.817 1.17l-.405-.912-.135 1.153h-.337l.202-1.686h.354l.472 1.032h.017l.473-1.032h.37l.203 1.686h-.337l-.135-1.153-.422.912h-.32zm2.108-1.445h1.315v.275h-.995v.43h.675v.276h-.675v.447h1.012v.275h-1.349l.017-1.703zm3.373 1.153v-1.153h.337v1.686h-.354l-.826-1.153v1.153h-.338v-1.686h.355l.809 1.153h.017zM51 15.262v.275h-.573v1.411h-.338v-1.41h-.556v-.276H51z" fill="#fff"/></g><defs><linearGradient id="paint0_linear_58_345" x1="5.751" y1="6.796" x2="64.104" y2="6.3" gradientUnits="userSpaceOnUse"><stop stop-color="#662D91"/><stop offset="1" stop-color="#EE2A7B"/></linearGradient><linearGradient id="paint1_linear_58_345" x1="5.751" y1="6.797" x2="64.104" y2="6.301" gradientUnits="userSpaceOnUse"><stop stop-color="#662D91"/><stop offset="1" stop-color="#EE2A7B"/></linearGradient><linearGradient id="paint2_linear_58_345" x1="5.751" y1="6.797" x2="64.104" y2="6.301" gradientUnits="userSpaceOnUse"><stop stop-color="#662D91"/><stop offset="1" stop-color="#EE2A7B"/></linearGradient><linearGradient id="paint3_linear_58_345" x1="5.751" y1="6.796" x2="64.104" y2="6.301" gradientUnits="userSpaceOnUse"><stop stop-color="#662D91"/><stop offset="1" stop-color="#EE2A7B"/></linearGradient><clipPath id="clip0_58_345"><path fill="#fff" d="M0 0h51v17H0z"/></clipPath></defs></svg>
